src/16/panel/crow-translate-tray.svg

<svg xmlns="http://www.w3.org/2000/svg" width="16" height="16" version="1.1">
 <defs>
  <style id="current-color-scheme" type="text/css">
   .ColorScheme-Text { color:#bebebe; } .ColorScheme-Highlight { color:#5294e2; }
  </style>
 </defs>
 <path style="opacity:0.3;fill:currentColor" class="ColorScheme-Text" d="M 8 1 A 7 7 0 0 0 1 8 A 7 7 0 0 0 8 15 A 7 7 0 0 0 15 8 A 7 7 0 0 0 8 1 z M 8 3 A 5 5 0 0 1 13 8 A 5 5 0 0 1 8 13 A 5 5 0 0 1 3 8 A 5 5 0 0 1 8 3 z"/>
 <path style="fill:currentColor" class="ColorScheme-Text" d="m 10.003963,1.000015 c -0.01721,0.096098 -0.02858,0.1448837 -0.04922,0.244414 -0.03613,0.163024 -0.05553,0.2454725 -0.10371,0.4084963 0.141092,0.7790828 0.144222,1.5812872 0.0668,2.3655181 -0.01768,0.1786807 -0.04321,0.357015 -0.07558,0.5349763 -0.01686,0.040336 0.3357387,0.032474 0.3357387,0.032474 0.02663,-0.1848002 0.04595,-0.3694919 0.05449,-0.5520682 0.04646,-1.0158966 0.04163,-2.0385071 -0.228515,-3.0338105 z M 9.8246693,4.5944402 C 9.4813909,4.8906619 9.1346128,5.2046689 8.8772148,5.5618414 8.256577,6.4246846 7.861308,7.5152456 7.0596509,8.2606513 6.7338176,8.5624015 6.3541644,8.8255202 5.9645423,9.0571333 6.1696974,9.0864844 6.3974667,9.1064456 6.6026238,9.0657094 6.1888646,9.3201584 5.7258867,9.5622378 5.3879843,9.9015029 5.2207571,10.067873 5.0473091,10.237947 4.8852538,10.410841 c 0.1310236,-0.0783 0.284358,-0.167546 0.4429654,-0.16921 0.2620467,-0.0032 0.7646425,-0.285434 0.7646424,-0.285434 0,0 -0.9462711,0.591861 -1.3341693,0.958855 -0.2206709,0.208779 -0.4695357,0.407936 -0.6591746,0.646074 -0.1706769,0.215284 0.025916,0.21023 0.025916,0.21023 0.3189384,-0.114177 0.4429441,-0.23239 0.7773985,-0.302527 -0.1344715,0.0473 -0.1995444,0.07047 -0.3357395,0.114516 -0.2965268,0.114177 -0.4360817,0.200011 -0.6895086,0.343547 -0.4568579,0.259343 -0.909729,0.925171 -1.2269437,1.363933 -0.1689512,0.231615 -0.4474275,0.428446 -0.585347,0.666585 -0.079303,0.137011 -0.071698,0.280316 -0.052734,0.3162 0.1396432,0.249555 0.8371862,0.460727 1.2199123,0.552067 0.4603059,0.107652 0.9444459,0.156397 1.4185437,0.174338 0.2810105,-0.05709 0.5718259,-0.169882 0.7787049,-0.362347 0.2810107,-0.260977 0.6869617,-0.513543 0.8490168,-0.851178 0.093095,-0.190837 0.2356777,-0.3027 0.2408184,-0.305944 -0.2120508,0.340898 -0.4443855,0.671325 -0.6960882,0.984493 -0.1206795,0.148429 -0.2865213,0.33671 -0.2865213,0.33671 0.2810106,-0.09786 0.5749359,-0.258485 0.8507746,-0.302527 0.1706759,-0.02773 0.3594036,-0.104757 0.4904264,-0.222195 0.1396429,-0.125593 0.3504779,-0.17538 0.4746059,-0.304235 0.3430736,-0.357207 0.5741918,-0.901614 0.9017506,-1.276764 0.041373,-0.0473 0.1403531,-0.170634 0.216209,-0.271761 0.060345,-0.08155 0.1089837,-0.150409 0.1089837,-0.150409 -0.1741225,0.383305 -0.3483162,0.773268 -0.5414025,1.145156 -0.00171,0.0033 -0.0018,0.007 -0.00351,0.01025 -0.058617,0.102759 -0.1459015,0.202718 -0.2355452,0.29569 -0.012078,0.01304 -0.023085,0.02454 -0.035154,0.0376 -0.015507,0.01629 -0.00648,0.01648 0.017577,0.0034 0.3499704,-0.17942 0.6587022,-0.45299 0.9931567,-0.668293 0.010341,-0.0065 0.021276,-0.01219 0.028125,-0.01709 0.2499793,-0.140273 0.4711913,-0.38897 0.6556584,-0.587962 0.1741234,-0.187574 0.2628241,-0.301661 0.3093726,-0.56916 0.00171,-0.0081 0.0018,-0.01577 0.00351,-0.02392 0.056889,-0.386567 0.1176697,-0.772106 0.2021466,-1.155411 0.017235,-0.07992 0.030087,-0.14786 0.040428,-0.201686 0,-0.0065 0.0018,-0.01573 0.0035,-0.02222 0.0017,-0.01304 0.0053,-0.02618 0.007,-0.03761 0.0017,-0.0065 0.0018,-0.0123 0.0035,-0.0188 0.0017,-0.01142 0.0036,-0.02089 0.0053,-0.02905 v -0.0017 c 0,-0.0049 0.0036,-0.02256 0.0053,-0.02905 0.0034,-0.01794 0.02637,-0.08204 0.02637,-0.08204 v 0.02564 0.01538 c -0.01383,0.676901 -0.1262196,1.406055 -0.01934,2.071537 0.07931,0.492588 0.124804,0.391405 0.124804,0.391405 0.04655,-0.580666 -0.01549,-1.286688 0.181053,-1.815159 0.132747,-0.357208 0.345883,-0.744839 0.41484,-1.1297739 0.07067,-0.3947231 0.06835,-0.8158524 0.058,-1.2203618 -0.01378,-0.5235779 -0.04723,-1.0505075 -0.124804,-1.5724542 0.0724,0.247925 0.177803,0.5078487 0.1916,0.7622986 0.01378,0.2413995 0.02128,0.4903677 0.02812,0.7366608 C 10.97799,8.283754 11.022408,7.960484 10.98792,7.6522082 10.95512,7.3684003 11.0119,7.0782374 10.97912,6.7993221 10.93602,6.4339676 10.92387,6.0391538 10.796291,5.6917326 10.673886,5.3524671 10.315038,5.0139524 10.221942,4.6730558 10.213242,4.6416068 10.191232,4.6160908 10.165692,4.5944328 10.030451,5.525936 9.7019162,6.4740492 9.4010494,7.3428106 9.0207961,8.4427931 8.4113298,9.3727644 7.8383663,10.369785 7.3118587,11.284434 6.6776082,12.057576 5.8568757,12.707956 5.1411008,13.27425 4.3496131,13.706584 3.4979096,14.018904 c -0.2649744,0.0961 -0.5615258,0.129865 -0.8419856,0.138444 -0.2064737,0.0052 -0.3534664,-0.0068 -0.3603488,-0.0068 C 2.9046722,14.023535 3.5218906,13.84069 4.0621631,13.530086 5.5608169,12.666917 6.7728061,11.485075 7.6520399,9.9783913 8.2112388,9.0225562 8.7392872,8.0836754 9.1074978,7.0334575 9.3828425,6.2444667 9.6689387,5.4243467 9.8246793,4.5944444 Z"/>
</svg>

<svg xmlns="http://www.w3.org/2000/svg" width="16" height="16"><defs><style id="current-color-scheme" type="text/css">.ColorScheme-Text{color:#bebebe}</style></defs><path class="ColorScheme-Text" d="M8 1a7 7 0 0 0-7 7 7 7 0 0 0 7 7 7 7 0 0 0 7-7 7 7 0 0 0-7-7zm0 2a5 5 0 0 1 5 5 5 5 0 0 1-5 5 5 5 0 0 1-5-5 5 5 0 0 1 5-5z" opacity=".3" fill="currentColor"/><path class="ColorScheme-Text" d="M10.004 1c-.017.096-.029.145-.05.244a5.071 5.071 0 0 1-.103.409c.141.779.144 1.581.067 2.365a6.646 6.646 0 0 1-.076.535c-.017.04.336.033.336.033.027-.185.046-.37.054-.552.047-1.016.042-2.039-.228-3.034zm-.18 3.594c-.343.297-.69.61-.947.968-.62.863-1.016 1.953-1.817 2.699a6.503 6.503 0 0 1-1.095.796c.205.03.432.05.638.009-.414.254-.877.496-1.215.836-.167.166-.34.336-.503.509.131-.078.285-.168.443-.17.262-.003.765-.285.765-.285s-.946.592-1.334.96c-.221.208-.47.407-.66.645-.17.215.026.21.026.21.32-.114.443-.232.778-.302-.135.047-.2.07-.336.114-.296.115-.436.2-.69.344-.456.26-.91.925-1.226 1.364-.17.231-.448.428-.586.666-.079.137-.071.28-.052.317.14.25.837.46 1.22.552.46.107.944.156 1.418.174.281-.057.572-.17.779-.362.28-.261.687-.514.849-.852a.926.926 0 0 1 .24-.305c-.211.34-.444.67-.696.984-.12.148-.286.337-.286.337.281-.098.575-.259.85-.303.171-.028.36-.105.491-.222.14-.126.35-.175.475-.304.343-.357.574-.902.902-1.277a6.044 6.044 0 0 0 .325-.422c-.174.383-.349.773-.542 1.145l-.003.01a1.574 1.574 0 0 1-.236.296l-.035.038c-.015.016-.006.016.018.003.35-.18.658-.453.993-.668l.028-.017c.25-.14.471-.39.656-.588.174-.188.262-.302.309-.57l.003-.023c.057-.387.118-.773.203-1.156.017-.08.03-.148.04-.202a.1.1 0 0 1 .004-.022c.001-.013.005-.026.007-.037l.003-.02a.494.494 0 0 1 .005-.028v-.002a.21.21 0 0 1 .006-.029c.003-.018.026-.082.026-.082V10.363c-.014.677-.126 1.406-.02 2.072.08.492.125.39.125.39.047-.58-.015-1.286.182-1.814.132-.357.345-.745.414-1.13.071-.395.069-.816.058-1.22a13.028 13.028 0 0 0-.124-1.573c.072.248.177.508.191.762.014.242.021.49.028.737.059-.303.103-.627.069-.935-.033-.284.024-.574-.009-.853-.043-.365-.055-.76-.183-1.107-.122-.34-.481-.678-.574-1.019a.164.164 0 0 0-.056-.079c-.136.932-.464 1.88-.765 2.749-.38 1.1-.99 2.03-1.563 3.027-.526.914-1.16 1.688-1.981 2.338a8.483 8.483 0 0 1-2.36 1.31c-.264.097-.56.13-.841.14-.207.005-.354-.007-.36-.007.609-.127 1.226-.31 1.766-.62a9.685 9.685 0 0 0 3.59-3.553c.56-.955 1.087-1.894 1.455-2.945.276-.789.562-1.609.718-2.439z" fill="currentColor"/></svg>
